app/dist/common/images/ni.svg

<svg height="18" viewBox="0 0 18 18" width="18" xmlns="http://www.w3.org/2000/svg"><path d="m0 0h18v18h-18z" fill="#f0f3fa"/><path d="m3 11 1.1-4h1.26l1.2 2.95h.04l.04-.22a11.35 11.35 0 0 0 .13-.57l.07-.27.52-1.89h.97l-1.1 4h-1.2l-1.28-3.03h-.04a5.06 5.06 0 0 0 -.09.46 5.57 5.57 0 0 1 -.14.69l-.51 1.88zm7.33 0 1.04-4h1.02l-.39 1.57h1.58l.4-1.57h1.02l-1.04 4h-1.02l.44-1.73h-1.58l-.44 1.73zm-2.66 0 1.03-4h.96l-1.05 4h-.95z" fill="#a93b35"/></svg>

<!-- by TradingView --><svg width="18" height="18" viewBox="0 0 18 18" xmlns="http://www.w3.org/2000/svg"><path fill="#F0F3FA" d="M0 0h18v18H0z"/><path d="m3 11 1.1-4h1.26l1.2 2.95h.04l.04-.22a11.35 11.35 0 0 0 .13-.57l.07-.27L7.36 7h.97l-1.1 4h-1.2L4.75 7.97h-.04a5.06 5.06 0 0 0-.09.46 5.57 5.57 0 0 1-.14.69L3.97 11H3ZM10.33 11l1.04-4h1.02L12 8.57h1.58l.4-1.57H15l-1.04 4h-1.02l.44-1.73H11.8L11.36 11h-1.03ZM7.67 11 8.7 7h.96l-1.05 4h-.95Z" fill="#A93B35"/></svg>
